X:265
M:4/4
L:1/8
K:G
D D | G2 G2 G/2 G3/2 z G | B2 B2 A/2 G3/2  E D | G2 G2 G/2 G3/2 A B | A6 G A | B2 B B B D' D' B | A G G E D2 D D | G/2 G3/2 G G A2 A2 | G6 z2 || !mf! D'3 D' E' D' z2 | !pp! B3 B C' B z2 | G3 G G G G G | B2 A2 A4 | !mf! D'3 D' E' D' z2 | !sintro! !pp!B3 B C' B z2 | G3 G A2 A2 | G6 !eintro!|]
